build/category/UtensilsOutline.svg

<svg xmlns="http://www.w3.org/2000/svg" fill="none" viewBox="0 0 24 24" focusable="false"><path d="M0 0H24V24H0z"/><path fill="#74767B" fill-rule="evenodd" d="M8.2879 2.98035C8.28715 2.98035 8.28641 2.98035 8.28566 2.98035C7.92668 2.98035 7.63566 3.27136 7.63566 3.63035L7.63566 6.02137C7.63566 6.3782 7.34639 6.66747 6.98956 6.66747C6.65688 6.66747 6.38292 6.41603 6.34736 6.09282L6.34736 5.60624L6.34346 5.60624L6.34346 3.63035C6.34346 3.27136 6.05244 2.98035 5.69346 2.98035C5.33447 2.98035 5.04346 3.27136 5.04346 3.63035L5.04346 6.02137C5.04346 6.06313 5.04477 6.10457 5.04736 6.14568L5.04736 8.21879C5.04737 9.22909 5.50667 10.1846 6.29566 10.8156C6.42559 10.9195 6.49657 11.0804 6.48576 11.2464L6.00583 18.618C5.9197 19.941 6.96951 21.0613 8.29524 21.0613C9.6222 21.0613 10.6724 19.939 10.5844 18.6149L10.0947 11.2462C10.0837 11.0801 10.1546 10.9191 10.2845 10.8152C11.0732 10.1844 11.5323 9.22933 11.5323 8.21946L11.5323 6.03301C11.5323 6.02913 11.5323 6.02525 11.5323 6.02137L11.5323 3.63035C11.5323 3.27136 11.2413 2.98035 10.8823 2.98035C10.5234 2.98035 10.2323 3.27136 10.2323 3.63035L10.2323 6.02808C10.2287 6.38182 9.94083 6.66747 9.58624 6.66747C9.22941 6.66747 8.94014 6.3782 8.94014 6.02137L8.94014 3.63035C8.94014 3.27136 8.64912 2.98035 8.29014 2.98035C8.28939 2.98035 8.28864 2.98035 8.2879 2.98035ZM10.2323 7.85766C10.0302 7.92878 9.81271 7.96747 9.58624 7.96747C9.08735 7.96747 8.63231 7.77975 8.2879 7.47109C7.94348 7.77975 7.48844 7.96747 6.98956 7.96747C6.76453 7.96747 6.54842 7.92928 6.34736 7.85902L6.34736 8.21879C6.34736 8.83411 6.62711 9.41606 7.10764 9.80039C7.56926 10.1696 7.82141 10.741 7.78301 11.3309L7.30308 18.7025C7.26576 19.2758 7.72071 19.7613 8.29524 19.7613C8.8703 19.7613 9.32545 19.2749 9.28731 18.7011L8.79758 11.3324C8.75833 10.7419 9.01043 10.1696 9.47256 9.79996C9.95276 9.4159 10.2323 8.83435 10.2323 8.21946L10.2323 7.85766ZM13.3295 4.72303C13.3295 3.76057 14.1098 2.98035 15.0722 2.98035C15.8204 2.98035 16.4851 3.45796 16.7238 4.16708L18.9178 10.6849C19.2817 11.7659 18.7762 12.9479 17.7432 13.4315C17.3449 13.6179 17.1285 14.0549 17.2215 14.4847L18.0101 18.1278C18.3293 19.6026 17.2056 20.9956 15.6966 20.9956C14.3893 20.9956 13.3295 19.9359 13.3295 18.6286L13.3295 4.72303ZM15.0722 4.28035C14.8277 4.28035 14.6295 4.47854 14.6295 4.72303L14.6295 18.6286C14.6295 19.2179 15.1073 19.6956 15.6966 19.6956C16.3768 19.6956 16.8834 19.0677 16.7395 18.4028L15.9509 14.7597C15.7296 13.7373 16.2446 12.6977 17.192 12.2541C17.6262 12.0509 17.8387 11.554 17.6857 11.0996L15.4918 4.5818C15.4311 4.40167 15.2623 4.28035 15.0722 4.28035Z"/></svg>

<svg xmlns="http://www.w3.org/2000/svg" fill="none" viewBox="0 0 24 24" focusable="false"><path fill="#74767B" fill-rule="evenodd" d="M8.28 2.98c-.36 0-.65.29-.65.65v2.39a.647.647 0 0 1-1.29.07V3.63c0-.36-.29-.65-.65-.65s-.65.29-.65.65v4.58c0 1.01.46 1.97 1.25 2.6.13.1.2.27.19.43L6 18.61c-.09 1.33.96 2.45 2.29 2.45s2.38-1.13 2.29-2.45l-.49-7.37c-.01-.16.06-.33.19-.43.79-.63 1.25-1.59 1.25-2.6V3.63c0-.36-.29-.65-.65-.65s-.65.29-.65.65v2.39c-.01.36-.29.64-.65.64s-.65-.29-.65-.64V3.63c0-.36-.29-.65-.64-.65zm1.95 4.87a1.97 1.97 0 0 1-1.95-.38 1.956 1.956 0 0 1-1.94.38v.36c0 .62.28 1.2.76 1.59.46.36.72.94.68 1.53L7.3 18.7c-.04.57.42 1.06.99 1.06a.99.99 0 0 0 .99-1.06l-.49-7.37c-.04-.59.22-1.17.68-1.54.48-.38.76-.96.76-1.58zm3.09-3.13c0-.96.78-1.74 1.75-1.74.75 0 1.41.47 1.65 1.18l2.19 6.52c.37 1.08-.14 2.26-1.17 2.75-.4.18-.62.62-.52 1.05l.79 3.64c.31 1.48-.81 2.87-2.32 2.87-1.31 0-2.37-1.06-2.37-2.37zm1.75-.44a.44.44 0 0 0-.45.44v13.9c0 .59.48 1.07 1.07 1.07.68 0 1.19-.63 1.04-1.29l-.78-3.65a2.22 2.22 0 0 1 1.24-2.5c.43-.2.64-.7.49-1.16l-2.19-6.51a.44.44 0 0 0-.42-.3"/></svg>
